X: 393
T: Bill Malley's
B: jims roots
M:6/8
L:1/8
R: barndance
Q: 3/8=100
K:Gmaj
V:1 
D|:"G"G2A BGB|"D"ded "Em"BAG|"G"dBG "Em"d2G|"Am"GBA "D"AGD|
"G"G2A BGB|"D"ded "Em"B2A|"G"BGD "C/D"d2D|[1 "G"GAG G2D:|[2 "G"GAG G2g||
|:"G"egd g3|"D"ded "Em"BGG|"G"ged "Em"gBg|"Am"dBA "D"Aga|
"G"ged dBg|"D"ded "Em"B2G/A/|"G"BAG "C/D"DGD|[1 "G"GAG G2g:|[2 "G"GAG G2D|]
% abcbook-tune_id 6298c245c2939045da41afac


% abcbook-boost 0
% abcbook-tablature 
% abcbook-transpose 
% abcbook-lastupdated 1654178373334
% abcbook-soundfonts 
% abcbook-repeats 1


